X:1
T:Lottie, SM
T:Lottie, SM
T:William Batchelder Bradbury, 1864
T:Public Domain Courtesy of the Cyber Hymnal™
C:William Batchelder Bradbury, 1864
Z:Public Domain
Z:Courtesy of the Cyber Hymnal™
%%score ( 1 2 ) 3
L:1/8
Q:1/4=130
M:3/2
K:D
V:1 treble 
V:2 treble 
V:3 bass 
V:1
 [FA]4 | [FA]2 [DF]2 [DF]4 [CE]4 | [DF]8 [FA]4 | [FA]2 [DF]2 [DF]4 [CE]4 | D8 [FA]4 | %5
 [GB]2 [GB]2 [Bd]4 [GB]4 | [FA]2 [DF]2 [CE]4 [EG]4 | F2 [EA]2 D4 [CE]4 | [DF]8 |] %9
V:2
 x4 | x12 | x12 | x12 | D8 x4 | x12 | x12 | F2 D4 x6 | x8 |] %9
V:3
 [D,A,]4 | [D,A,]4 [D,A,]4 [A,,A,]4 | [D,A,]8 [D,D]4 | [D,D]2 [D,A,]2 [D,A,]4 [A,,G,]4 | %4
 [D,F,]8 [D,D]4 | [G,D]2 [G,D]2 [G,D]4 [G,D]4 | [D,D]2 [D,A,]2 [A,,A,]4 [A,,A,C]4 | %7
 [D,A,D]2 [C,A,]2 [B,,F,]4 [A,,A,]4 | [D,A,]8 |] %9

